X:1
T:Kyrie Eleison
T:Charles Wood
T:Kyrie Eleison
C:Charles Wood
%%score [ 1 2 3 4 ]
L:1/8
M:4/4
K:Eb
V:1 treble nm="S" snm="S."
V:2 treble nm="A" snm="A."
V:3 treble-8 transpose=-12 nm="T" snm="T."
V:4 bass nm="B" snm="B."
V:1
!p!"^Andante" C4 E2 F2 | G2 B2- BA G2 | F2 E2 F4 | F2 c4 B2 | A2 G2 A2 F2 | E2 C2 !fermata!C4 || %6
w: Ky- ri- *|e * * * *||e- * *||lei- * son.|
 G4 =A4 | B2 c2 d4- | dc c2- cB =A2 | G8 || z8 | z8 |!mf! c4 A2 G2 | F3 E D4 | F2 c4 B2 | %15
w: Chri- *|* * ste|* e- lei- * * *|son.|||Ky- ri- *|e * *|e- * *|
 A2 G2 A2 F2 |"^rall. e dim." ED C2 C4- | C8 |] %18
w: |lei- * * son.|_|
V:2
!p! C4 C4 | E8 | B,8 | z8 | C2 G2 F2 C2 | C4 !fermata!C4 || E8 | D2 E2 F2 D2 | G6 ^F2 |!mf! G8 || %10
w: Ky- ri-|e|||e- * * *|lei- son.|Chri-|* * ste e-|lei- *|son.|
 G4 E2 D2 | C3 B, A,2 G,2 | A,2 B,2 CD E2- | ED C2 =B,2 z2 | z8 | C2 G2 F2 C2 | %16
w: Ky- ri- *|e * * *|* * * * ky-|* * ri- e||e- * * *|
"^rall. e dim." C3 B, A,4 | G,8 |] %18
w: lei- * *|son.|
V:3
 z4!p! A4 | G3 F E3 G | BA G2 F4 | z2 F2 c4- | c4- cB A2 | G3 F !fermata!E4 || c8 | B4 =A4 | %8
w: Ky-|* * ri- *|e * * *|e- *||lei- * son.|Chri-||
 G2 c2 d3 c | =B8 || z8 |!mf! z4 c4 | A2 G2 F2 E2 | A2 G4 z2 | z2 F2 c4- | c4- cB A2 | %16
w: ste e- lei- *|son.||Ky-|ri- * e *||e- *||
"^rall. e dim." G4- GF F2- | F2 =E6 |] %18
w: lei- * * *|* son.|
V:4
 z8 | z4!p! C,4 | D,2 E,2 B,,2 B,2 | A,6 G,2 | F,2 E,2 F,4 | C,4 !fermata!C,4 || z8 | G,4 F,4 | %8
w: |Ky-|* ri- e e-|||lei- son.||Chri- *|
 E,3 E, D,4 | G,8 ||!mf! z4 G,4 | E,2 D,2 C,2 E,2 | F,2 G,2 A,2 C2 | F,2 C,2 G,2 G,2 | A,6 G,2 | %15
w: ste e- lei-|son.|Ky-|ri- * e *|* * * Ky-|* ri- e e-||
 F,2 E,2 F,4 |"^rall. e dim." C,8- | C,8 |] %18
w: * * lei-|son.||

